!!! OTL: Literature1
!!! Chapter: 5
!!! Section: I
!!! Page: 345
!!! Mode: 
!!! Encoder: DJB
**kern
*staff1
*I"Piano
=1-
*clefG2
*k[b-]
*F:
*M4/4
4r
4r
4r
4f/
=2
4a/
4g/
4a/
4b-\
=3
2cc\
4a/
4dd\
=4
4cc\
4b-\
4a/
4g/
=5
2a/
4r
4cc\
=6
4dd\
4ee\
4ff\
4ee\
=7
2dd\
4cc\
4a/
=8
4b-\
4a/
4g/
4g/
=9
2f/
2r
==
*-
